;FLAVOR:RepRap
;TIME:3486
;Filament used: 3.27045m
;Layer height: 0.2
;Generated with Cura_SteamEngine 2.6.1
M104 S215
M109 S215
; -- START GCODE --
G21                     ;set units to millimetres
G90                     ;set to absolute positioning
M106 S0                 ;set fan speed to zero (turned off)
G28 X0 Y0               ;move to the X/Y origin (Home)
G28 Z0                  ;move to the Z origin (Home)
G1 Z15.0 F1200          ;move Z to position 15.0 mm
G92 E0                  ;zero the extruded length
G1 E20 F200             ;extrude 20mm of feed stock
G92 E0                  ;zero the extruded length again
G1 F7200                ;set feedrate to 120 mm/s
; -- end of START GCODE --
;LAYER_COUNT:18
;LAYER:0
M107
G0 F3600 X65.848 Y67.747 Z0.2
;TYPE:SKIRT
G1 F1800 X66.233 Y67.419 E0.01682
G1 X66.664 Y67.156 E0.03362
G1 X67.132 Y66.963 E0.05045
G1 X67.624 Y66.847 E0.06727
G1 X68.111 Y66.81 E0.08351
G1 X146.887 Y66.81 E2.70361
G1 X147.391 Y66.85 E2.72043
G1 X147.882 Y66.969 E2.73723
G1 X148.349 Y67.163 E2.75405
G1 X148.779 Y67.429 E2.77087
G1 X149.153 Y67.75 E2.78726
G1 X159.745 Y78.371 E3.28616
G1 X160.072 Y78.756 E3.30296
G1 X160.335 Y79.188 E3.31978
G1 X160.527 Y79.656 E3.3366
G1 X160.642 Y80.148 E3.35341
G1 X160.679 Y80.627 E3.36939
G1 X160.7 Y99.27 E3.98946
G1 X160.7 Y99.329 E3.99142
G1 X160.579 Y106.413 E4.22707
G1 X160.681 Y109.636 E4.33432
G1 X160.683 Y109.736 E4.33765
G1 X160.69 Y129.387 E4.99124
G1 X160.65 Y129.891 E5.00806
G1 X160.532 Y130.382 E5.02485
G1 X160.337 Y130.849 E5.04168
G1 X160.071 Y131.279 E5.0585
G1 X159.753 Y131.651 E5.07478
G1 X149.161 Y142.245 E5.57304
G1 X148.776 Y142.573 E5.58986
G1 X148.345 Y142.836 E5.60666
G1 X147.877 Y143.028 E5.62348
G1 X147.385 Y143.145 E5.6403
G1 X146.898 Y143.182 E5.65655
G1 X57.509 Y143.182 E8.62964
G1 X57.005 Y143.142 E8.64645
G1 X56.514 Y143.023 E8.66326
G1 X56.047 Y142.829 E8.68008
G1 X55.617 Y142.563 E8.69689
G1 X55.234 Y142.233 E8.71371
G1 X54.908 Y141.846 E8.73054
G1 X54.647 Y141.413 E8.74735
G1 X54.457 Y140.945 E8.76415
G1 X54.344 Y140.452 E8.78098
G1 X54.309 Y139.979 E8.79675
G1 X54.342 Y109.235 E9.8193
G1 X54.342 Y109.193 E9.8207
G1 X54.421 Y103.582 E10.00734
G1 X54.319 Y100.364 E10.11442
G1 X54.317 Y100.264 E10.11775
G1 X54.31 Y80.613 E10.77134
G1 X54.35 Y80.109 E10.78816
G1 X54.468 Y79.618 E10.80496
G1 X54.663 Y79.151 E10.82179
G1 X54.929 Y78.721 E10.83861
G1 X55.247 Y78.349 E10.85488
G1 X65.848 Y67.747 E11.35355
G1 F1500 E4.85355
G0 F3600 X67.455 Y69.712
G0 X68.362 Y70.618
G0 X68.393 Y70.692
G0 X68.355 Y70.6
;TYPE:WALL-INNER
G1 F1500 E11.35355
G1 F1800 X93.13 Y70.6 E12.17756
G1 X130.53 Y70.6 E13.42149
G1 X146.645 Y70.6 E13.95748
G1 X156.9 Y80.855 E14.43984
G1 X156.9 Y99.4 E15.05665
G1 X155.5 Y99.4 E15.10322
G1 X155.5 Y94.97 E15.25056
G1 X155.426 Y94.22 E15.27563
G1 X155.198 Y93.468 E15.30176
G1 X154.828 Y92.776 E15.32786
G1 X154.331 Y92.17 E15.35393
G1 X153.724 Y91.672 E15.38004
G1 X153.033 Y91.302 E15.40611
G1 X152.281 Y91.074 E15.43225
G1 X151.53 Y91 E15.45735
G1 X145.477 Y91.002 E15.65867
G1 X144.727 Y91.077 E15.68374
G1 X143.975 Y91.304 E15.70987
G1 X143.283 Y91.674 E15.73597
G1 X142.677 Y92.172 E15.76206
G1 X142.179 Y92.778 E15.78814
G1 X141.809 Y93.47 E15.81424
G1 X141.581 Y94.222 E15.84038
G1 X141.507 Y94.972 E15.86545
G1 X141.507 Y110.032 E16.36634
G1 X141.581 Y110.782 E16.39141
G1 X141.809 Y111.534 E16.41755
G1 X142.179 Y112.226 E16.44365
G1 X142.677 Y112.832 E16.46973
G1 X143.283 Y113.33 E16.49582
G1 X143.975 Y113.7 E16.52192
G1 X144.727 Y113.928 E16.54806
G1 X145.477 Y114.002 E16.57312
G1 X151.53 Y114 E16.77445
G1 X152.281 Y113.926 E16.79955
G1 X153.033 Y113.698 E16.82568
G1 X153.724 Y113.328 E16.85175
G1 X154.331 Y112.83 E16.87787
G1 X154.828 Y112.224 E16.90393
G1 X155.198 Y111.532 E16.93003
G1 X155.426 Y110.78 E16.95617
G1 X155.444 Y110.6 E16.96219
G1 X156.9 Y110.6 E17.01061
G1 X156.9 Y129.145 E17.62742
G1 X146.645 Y139.4 E18.10979
G1 X129.53 Y139.4 E18.67903
G1 X127.478 Y139.4 E18.74728
G1 X127.458 Y139.4 E18.74795
G1 X95.53 Y139.4 E19.80988
G1 X92.478 Y139.4 E19.91139
G1 X92.458 Y139.4 E19.91205
G1 X58.1 Y139.4 E21.0548
G1 X58.1 Y110.6 E22.0127
G1 X60.071 Y110.6 E22.07825
G1 X60.072 Y99.6 E22.44411
G1 X60.072 Y99.4 E22.45077
G1 X59.872 Y99.4 E22.45507
G1 X58.1 Y99.4 E22.51401
G1 X58.1 Y80.855 E23.13082
G1 X68.355 Y70.6 E23.61318
G0 F3600 X68.393 Y70.692
G0 X69.933 Y75.39
G0 X69.971 Y75.482
G1 F1800 X68.377 Y76.334 E23.6733
G1 X66.98 Y77.48 E23.7334
G1 X65.833 Y78.877 E23.79351
G1 X64.981 Y80.471 E23.85363
G1 X64.457 Y82.202 E23.91378
G1 X64.279 Y84 E23.97388
G1 X64.457 Y85.799 E24.034
G1 X64.981 Y87.529 E24.09413
G1 X65.833 Y89.123 E24.15424
G1 X66.98 Y90.52 E24.21436
G1 X68.377 Y91.667 E24.27448
G1 X69.971 Y92.519 E24.33459
G1 X71.702 Y93.043 E24.39475
G1 X73.5 Y93.221 E24.45484
G1 X75.298 Y93.043 E24.51493
G1 X77.029 Y92.519 E24.57509
G1 X78.623 Y91.667 E24.6352
G1 X80.02 Y90.52 E24.69532
G1 X81.167 Y89.123 E24.75544
G1 X82.019 Y87.529 E24.81556
G1 X82.543 Y85.799 E24.87568
G1 X82.721 Y84 E24.93581
G1 X82.543 Y82.202 E24.9959
G1 X82.019 Y80.471 E25.05605
G1 X81.167 Y78.877 E25.11617
G1 X80.02 Y77.48 E25.17629
G1 X78.623 Y76.334 E25.23638
G1 X77.029 Y75.482 E25.2965
G1 X75.298 Y74.957 E25.35666
G1 X73.5 Y74.779 E25.41676
G1 X71.702 Y74.957 E25.47685
G1 X69.971 Y75.482 E25.53701
G0 F3600 X69.933 Y75.39
G0 X71.695 Y74.918
G0 X73.5 Y74.739
G0 X84.808 Y74.968
G0 X84.907 Y74.972
G1 F1800 X84.907 Y87.032 E25.93813
G1 X84.981 Y87.783 E25.96323
G1 X85.209 Y88.534 E25.98933
G1 X85.579 Y89.226 E26.01543
G1 X86.077 Y89.832 E26.04152
G1 X86.682 Y90.33 E26.06758
G1 X87.375 Y90.701 E26.09373
G1 X88.127 Y90.928 E26.11986
G1 X88.877 Y91.002 E26.14492
G1 X93.13 Y91 E26.28638
G1 X93.881 Y90.926 E26.31148
G1 X94.632 Y90.698 E26.33758
G1 X95.324 Y90.328 E26.36368
G1 X95.93 Y89.83 E26.38977
G1 X96.428 Y89.225 E26.41583
G1 X96.799 Y88.532 E26.44198
G1 X97.026 Y87.78 E26.4681
G1 X97.1 Y87.03 E26.49317
G1 X97.1 Y74.97 E26.89429
G1 X97.026 Y74.22 E26.91935
G1 X96.799 Y73.468 E26.94548
G1 X96.428 Y72.775 E26.97162
G1 X95.93 Y72.17 E26.99768
G1 X95.324 Y71.672 E27.02377
G1 X94.632 Y71.302 E27.04987
G1 X93.881 Y71.075 E27.07597
G1 X93.13 Y71 E27.10107
G1 X88.877 Y71.003 E27.24252
G1 X88.127 Y71.077 E27.26759
G1 X87.375 Y71.304 E27.29372
G1 X86.683 Y71.675 E27.31983
G1 X86.077 Y72.172 E27.3459
G1 X85.579 Y72.779 E27.37201
G1 X85.209 Y73.47 E27.39808
G1 X84.981 Y74.222 E27.42422
G1 X84.907 Y74.972 E27.44929
G0 F3600 X84.808 Y74.968
G0 X84.942 Y74.215
G0 X85.173 Y73.455
G0 X85.546 Y72.757
G0 X86.049 Y72.144
G0 X86.661 Y71.642
G0 X87.36 Y71.268
G0 X88.12 Y71.038
G0 X88.876 Y70.964
G0 X93.131 Y70.961
G0 X93.888 Y71.036
G0 X94.647 Y71.266
G0 X95.346 Y71.639
G0 X95.958 Y72.142
G0 X96.461 Y72.753
G0 X96.835 Y73.453
G0 X99.775 Y79.801
G0 X99.867 Y79.839
G1 F1800 X99.398 Y81.389 E27.50315
G1 X99.238 Y83 E27.55699
G1 X99.398 Y84.611 E27.61084
G1 X99.867 Y86.162 E27.66473
G1 X100.631 Y87.59 E27.7186
G1 X101.659 Y88.842 E27.77248
G1 X102.91 Y89.869 E27.82631
G1 X104.338 Y90.633 E27.88018
G1 X105.889 Y91.103 E27.93408
G1 X107.5 Y91.262 E27.98792
G1 X109.111 Y91.103 E28.04177
G1 X110.662 Y90.633 E28.09567
G1 X112.09 Y89.869 E28.14953
G1 X113.342 Y88.842 E28.20339
G1 X114.369 Y87.59 E28.25725
G1 X115.132 Y86.162 E28.3111
G1 X115.602 Y84.611 E28.36501
G1 X115.761 Y83 E28.41885
G1 X115.602 Y81.389 E28.47269
G1 X115.132 Y79.839 E28.52656
G1 X114.369 Y78.41 E28.58044
G1 X113.342 Y77.159 E28.63427
G1 X112.09 Y76.132 E28.68813
G1 X110.662 Y75.368 E28.742
G1 X109.111 Y74.898 E28.7959
G1 X107.5 Y74.739 E28.84975
G1 X105.889 Y74.898 E28.90359
G1 X104.338 Y75.368 E28.95749
G1 X102.91 Y76.132 E29.01136
G1 X101.659 Y77.159 E29.06519
G1 X100.631 Y78.41 E29.11904
G1 X99.867 Y79.839 E29.17294
G0 F3600 X99.775 Y79.801
G0 X99.359 Y81.382
G0 X99.198 Y83
G0 X99.359 Y84.618
G0 X99.831 Y86.177
G0 X100.598 Y87.612
G0 X101.631 Y88.87
G0 X107.628 Y93.591
G0 X107.683 Y93.674
G1 F1800 X107.077 Y94.172 E29.19903
G1 X106.579 Y94.779 E29.22514
G1 X106.209 Y95.47 E29.25121
G1 X105.981 Y96.222 E29.27735
G1 X105.909 Y96.954 E29.30181
G1 X105.907 Y109.032 E29.70353
G1 X105.981 Y109.783 E29.72863
G1 X106.209 Y110.534 E29.75473
G1 X106.579 Y111.226 E29.78083
G1 X107.077 Y111.832 E29.80692
G1 X107.682 Y112.33 E29.83298
G1 X108.375 Y112.701 E29.85913
G1 X109.127 Y112.928 E29.88525
G1 X109.902 Y113.004 E29.91115
G1 X110.682 Y112.925 E29.93723
G1 X111.432 Y112.698 E29.96329
G1 X112.124 Y112.328 E29.98939
G1 X112.73 Y111.83 E30.01548
G1 X113.228 Y111.225 E30.04154
G1 X113.599 Y110.532 E30.06769
G1 X113.826 Y109.78 E30.09381
G1 X113.9 Y109.03 E30.11888
G1 X113.9 Y96.97 E30.52
G1 X113.826 Y96.22 E30.54506
G1 X113.599 Y95.468 E30.57119
G1 X113.228 Y94.775 E30.59733
G1 X112.73 Y94.17 E30.6234
G1 X112.124 Y93.672 E30.64948
G1 X111.432 Y93.302 E30.67558
G1 X110.681 Y93.074 E30.70169
G1 X109.898 Y92.997 E30.72786
G1 X109.125 Y93.077 E30.7537
G1 X108.375 Y93.304 E30.77977
G1 X107.683 Y93.674 E30.80586
G0 F3600 X107.628 Y93.591
G0 X108.36 Y93.268
G0 X109.118 Y93.038
G0 X109.898 Y92.957
G0 X110.688 Y93.035
G0 X111.447 Y93.266
G0 X112.146 Y93.639
G0 X117.202 Y96.734
G0 X117.294 Y96.772
G1 F1800 X116.666 Y98.846 E30.87794
G1 X116.453 Y101 E30.94993
G1 X116.666 Y103.154 E31.02192
G1 X117.294 Y105.228 E31.094
G1 X118.315 Y107.137 E31.166
G1 X119.689 Y108.811 E31.23803
G1 X121.363 Y110.185 E31.31006
G1 X123.272 Y111.206 E31.38207
G1 X125.346 Y111.834 E31.45414
G1 X127.5 Y112.047 E31.52613
G1 X129.655 Y111.834 E31.59816
G1 X131.728 Y111.206 E31.6702
G1 X133.637 Y110.185 E31.74221
G1 X135.311 Y108.811 E31.81424
G1 X136.685 Y107.137 E31.88627
G1 X137.706 Y105.228 E31.95827
G1 X138.334 Y103.154 E32.03035
G1 X138.547 Y101 E32.10234
G1 X138.334 Y98.846 E32.17433
G1 X137.706 Y96.772 E32.2464
G1 X136.685 Y94.863 E32.31841
G1 X135.311 Y93.189 E32.39044
G1 X133.637 Y91.815 E32.46247
G1 X131.728 Y90.794 E32.53447
G1 X129.655 Y90.166 E32.60652
G1 X127.5 Y89.953 E32.67854
G1 X125.346 Y90.166 E32.75053
G1 X123.272 Y90.794 E32.82261
G1 X121.363 Y91.815 E32.89461
G1 X119.689 Y93.189 E32.96664
G1 X118.315 Y94.863 E33.03867
G1 X117.294 Y96.772 E33.11068
G0 F3600 X117.202 Y96.734
G0 X119.937 Y86.793
G0 X119.975 Y86.701
G1 F1800 X120.727 Y86.928 E33.1368
G1 X121.477 Y87.002 E33.16187
G1 X130.53 Y87 E33.46297
G1 X131.281 Y86.926 E33.48807
G1 X132.033 Y86.698 E33.51421
G1 X132.724 Y86.328 E33.54028
G1 X133.331 Y85.83 E33.56639
G1 X133.828 Y85.224 E33.59246
G1 X134.198 Y84.532 E33.61856
G1 X134.426 Y83.78 E33.6447
G1 X134.5 Y83.03 E33.66976
G1 X134.5 Y74.97 E33.93784
G1 X134.426 Y74.22 E33.96291
G1 X134.198 Y73.468 E33.98904
G1 X133.828 Y72.776 E34.01514
G1 X133.331 Y72.17 E34.04121
G1 X132.724 Y71.672 E34.06732
G1 X132.033 Y71.302 E34.09339
G1 X131.281 Y71.075 E34.11952
G1 X130.53 Y71 E34.14462
G1 X121.477 Y71.003 E34.44572
G1 X120.727 Y71.077 E34.47079
G1 X119.975 Y71.304 E34.49692
G1 X119.283 Y71.675 E34.52303
G1 X118.677 Y72.172 E34.5491
G1 X118.179 Y72.779 E34.57521
G1 X117.809 Y73.47 E34.60128
G1 X117.581 Y74.222 E34.62742
G1 X117.507 Y74.972 E34.65249
G1 X117.507 Y83.032 E34.92056
G1 X117.581 Y83.783 E34.94566
G1 X117.809 Y84.534 E34.97177
G1 X118.179 Y85.226 E34.99787
G1 X118.677 Y85.833 E35.02398
G1 X119.283 Y86.33 E35.05005
G1 X119.975 Y86.701 E35.07616
G0 F3600 X119.937 Y86.793
G0 X120.72 Y86.967
G0 X121.476 Y87.041
G0 X130.531 Y87.039
G0 X131.288 Y86.965
G0 X132.048 Y86.734
G0 X132.746 Y86.361
G0 X136.244 Y83.442
G0 X136.342 Y83.423
G1 F1800 X136.757 Y84.792 E35.12374
G1 X137.432 Y86.053 E35.17131
G1 X138.34 Y87.157 E35.21886
G1 X139.446 Y88.065 E35.26645
G1 X140.707 Y88.739 E35.31401
G1 X142.077 Y89.153 E35.36161
G1 X143.5 Y89.294 E35.40917
G1 X144.923 Y89.153 E35.45673
G1 X146.293 Y88.739 E35.50433
G1 X147.554 Y88.065 E35.55189
G1 X148.66 Y87.157 E35.59948
G1 X149.568 Y86.052 E35.64705
G1 X150.242 Y84.792 E35.69458
G1 X150.657 Y83.423 E35.74216
G1 X150.798 Y82 E35.78972
G1 X150.657 Y80.578 E35.83725
G1 X150.242 Y79.209 E35.88483
G1 X149.568 Y77.948 E35.93238
G1 X148.66 Y76.843 E35.97995
G1 X147.554 Y75.936 E36.02752
G1 X146.293 Y75.262 E36.07508
G1 X144.923 Y74.847 E36.12269
G1 X143.5 Y74.706 E36.17025
G1 X142.077 Y74.847 E36.21781
G1 X140.707 Y75.262 E36.26542
G1 X139.445 Y75.936 E36.31301
G1 X138.34 Y76.843 E36.36056
G1 X137.432 Y77.947 E36.4081
G1 X136.757 Y79.209 E36.4557
G1 X136.342 Y80.578 E36.50328
G1 X136.202 Y82 E36.55081
G1 X136.342 Y83.423 E36.59836
G0 F3600 X136.244 Y83.442
G0 X138.373 Y98.839
G0 X138.587 Y101
G0 X138.373 Y103.161
G0 X137.742 Y105.243
G0 X136.718 Y107.159
G0 X130.3 Y114.976
G0 X130.281 Y115.074
G1 F1800 X129.529 Y115 E36.6235
G1 X127.477 Y115.002 E36.69175
G1 X126.727 Y115.076 E36.71681
G1 X125.975 Y115.304 E36.74295
G1 X125.283 Y115.674 E36.76905
G1 X124.677 Y116.172 E36.79514
G1 X124.179 Y116.778 E36.82122
G1 X123.809 Y117.47 E36.84732
G1 X123.581 Y118.222 E36.87346
G1 X123.507 Y118.972 E36.89853
G1 X123.507 Y135.032 E37.43268
G1 X123.581 Y135.782 E37.45775
G1 X123.809 Y136.534 E37.48389
G1 X124.179 Y137.226 E37.50998
G1 X124.677 Y137.832 E37.53607
G1 X125.283 Y138.33 E37.56216
G1 X125.975 Y138.7 E37.58826
G1 X126.727 Y138.928 E37.6144
G1 X127.459 Y139.001 E37.63886
G1 X127.478 Y139.002 E37.6395
G1 X129.53 Y139 E37.70757
G1 X130.281 Y138.925 E37.73268
G1 X131.033 Y138.698 E37.7588
G1 X131.724 Y138.328 E37.78487
G1 X132.331 Y137.83 E37.81099
G1 X132.828 Y137.223 E37.83708
G1 X133.199 Y136.532 E37.86317
G1 X133.426 Y135.78 E37.88929
G1 X133.5 Y135.03 E37.91436
G1 X133.5 Y118.97 E38.44852
G1 X133.426 Y118.219 E38.47362
G1 X133.199 Y117.468 E38.49971
G1 X132.828 Y116.776 E38.52583
G1 X132.331 Y116.17 E38.55189
G1 X131.724 Y115.672 E38.57801
G1 X131.033 Y115.302 E38.60408
G1 X130.281 Y115.074 E38.63021
G0 F3600 X130.3 Y114.976
G0 X131.048 Y115.266
G0 X131.746 Y115.639
G0 X132.359 Y116.142
G0 X136.256 Y120.159
G0 X136.339 Y120.214
G1 F1800 X135.542 Y121.703 E38.68639
G1 X135.053 Y123.32 E38.74257
G1 X134.887 Y125 E38.79872
G1 X135.053 Y126.679 E38.85484
G1 X135.542 Y128.296 E38.91102
G1 X136.339 Y129.785 E38.9672
G1 X137.41 Y131.09 E39.02335
G1 X138.715 Y132.161 E39.0795
G1 X140.204 Y132.957 E39.13565
G1 X141.82 Y133.447 E39.19182
G1 X143.5 Y133.613 E39.24797
G1 X145.18 Y133.447 E39.30412
G1 X146.796 Y132.957 E39.36028
G1 X148.285 Y132.161 E39.41644
G1 X149.59 Y131.09 E39.47259
G1 X150.662 Y129.785 E39.52876
G1 X151.457 Y128.296 E39.5849
G1 X151.947 Y126.679 E39.6411
G1 X152.113 Y125 E39.69721
G1 X151.947 Y123.32 E39.75336
G1 X151.457 Y121.703 E39.80956
G1 X150.662 Y120.214 E39.8657
G1 X149.59 Y118.91 E39.92185
G1 X148.285 Y117.838 E39.97802
G1 X146.796 Y117.042 E40.03418
G1 X145.18 Y116.553 E40.09033
G1 X143.5 Y116.386 E40.14648
G1 X141.82 Y116.553 E40.20264
G1 X140.204 Y117.042 E40.25879
G1 X138.715 Y117.838 E40.31495
G1 X137.41 Y118.91 E40.37112
G1 X136.339 Y120.214 E40.42724
G0 F3600 X136.256 Y120.159
G0 X133.538 Y120.684
G0 X133.539 Y135.031
G0 X133.465 Y135.787
G0 X133.235 Y136.547
G0 X132.861 Y137.245
G0 X132.359 Y137.858
G0 X131.746 Y138.361
G0 X131.048 Y138.734
G0 X130.288 Y138.964
G0 X129.532 Y139.039
G0 X127.477 Y139.041
G0 X126.72 Y138.967
G0 X125.96 Y138.736
G0 X125.261 Y138.363
G0 X124.649 Y137.86
G0 X124.146 Y137.248
G0 X123.773 Y136.549
G0 X123.542 Y135.789
G0 X121.04 Y123.103
G0 X120.942 Y123.122
G1 F1800 X120.394 Y121.315 E40.49005
G1 X119.504 Y119.651 E40.55281
G1 X118.307 Y118.193 E40.61555
G1 X116.849 Y116.995 E40.67832
G1 X115.184 Y116.105 E40.74111
G1 X113.377 Y115.558 E40.80391
G1 X111.5 Y115.373 E40.86664
G1 X109.623 Y115.558 E40.92937
G1 X107.816 Y116.105 E40.99216
G1 X106.151 Y116.995 E41.05496
G1 X104.693 Y118.193 E41.11772
G1 X103.496 Y119.651 E41.18046
G1 X102.606 Y121.315 E41.24323
G1 X102.058 Y123.122 E41.30603
G1 X101.873 Y125 E41.3688
G1 X102.058 Y126.877 E41.43153
G1 X102.606 Y128.684 E41.49433
G1 X103.496 Y130.348 E41.5571
G1 X104.693 Y131.807 E41.61986
G1 X106.151 Y133.004 E41.68261
G1 X107.816 Y133.894 E41.7454
G1 X109.623 Y134.441 E41.80819
G1 X111.5 Y134.627 E41.87093
G1 X113.377 Y134.441 E41.93366
G1 X115.184 Y133.894 E41.99646
G1 X116.849 Y133.004 E42.05925
G1 X118.307 Y131.807 E42.12199
G1 X119.504 Y130.348 E42.18476
